X:175
L:1/16
Q:3/8=40
M:3/8
K:D
 fa | g>b f>a e>g | f>a d2 d>f | e>g A2 c>e | d>f A2 f>a | g>b f>a e>g | f>a d2 d>f | e>g A2 c>e | 
 d4 :: fa | e>g A2 c>e | d>f A2 f>a | e>g A2 c>e | d>f A2 f>a | g>b f>a e>g | f>a d2 d>f | 
 e>g A2 c>e | d4 ::[K:G] a2 | b2a2f2 | d4 a2 | b2a2f2 | e4 a2 | b2a2f2 | (dc)(df)(af) | e^defge | 
 d4 z2 :|

